X:2691
T:Polska (SvL Västergötland nr 101)
H:efter en skräddare, kallad Blanken
M:3/4
L:1/8
B:Svenska Låtar, Västergötland, nr 101
B:och på [[http://www.smus.se/earkiv/fmk/browselarge.php?lang=sw&katalogid=Svest+4&bildnr=00022|smus.se]]
N:Uppt. av Olof Andersson 1929
O:Ornunga, Västergötland
R:Polska
S:Johan Albert Pettersson
Z:Per Oldberg 2012-07-26
K:D
d>c A2A2 | A2 ((3dAd) f2- | f2 (3gag ec | (3cAc d>A F>A | 
d>c A2A2 | A2 ((3dAd) f2- | f2 (3gag ec | (3cAc [d4D4] :: [f4A4] a2 |
a2 (3gbg eg | (gf) [f2A2][a2-A2-] | [a2A2] (3gbg eg | g(f a)(f d)f | (3ece d4 :| 
(:musicend:)
(:music:)
